assets/icons/envelope.svg

<?xml version="1.0" encoding="UTF-8"?>
<svg width="31px" height="23px" viewBox="0 0 31 23" version="1.1" xmlns="http://www.w3.org/2000/svg" xmlns:xlink="http://www.w3.org/1999/xlink">
    <!-- Generator: Sketch 59.1 (86144) - https://sketch.com -->
    <title>envelope</title>
    <desc>Created with Sketch.</desc>
    <defs>
        <path d="M31.5307618,13.7858073 C31.7529298,13.6092122 32.0833334,13.774414 32.0833334,14.0535482 L32.0833334,25.703125 C32.0833334,27.2127279 30.8585613,28.4375001 29.3489584,28.4375001 L5.65104161,28.4375001 C4.14143874,28.4375001 2.91666659,27.2127279 2.91666659,25.703125 L2.91666659,14.0592448 C2.91666659,13.774414 3.24137363,13.6149088 3.46923821,13.7915039 C4.74527988,14.7827148 6.43717442,16.0416667 12.2477213,20.2628581 C13.449707,21.1401367 15.4777018,22.9858399 17.5,22.9744466 C19.5336914,22.9915365 21.6015625,21.105957 22.7579753,20.2628581 C28.5685222,16.0416667 30.2547201,14.7770182 31.5307618,13.7858073 Z M17.5,21.1458334 C18.8216146,21.1686198 20.7242839,19.4824219 21.6813151,18.7874349 C29.2407227,13.301595 29.8160808,12.8230794 31.5592449,11.4558919 C31.8896485,11.1995442 32.0833334,10.8007812 32.0833334,10.3792317 L32.0833334,9.29687496 C32.0833334,7.78727209 30.8585613,6.56249995 29.3489584,6.56249995 L5.65104161,6.56249995 C4.14143874,6.56249995 2.91666659,7.78727209 2.91666659,9.29687496 L2.91666659,10.3792317 C2.91666659,10.8007812 3.11035149,11.1938476 3.44075514,11.4558919 C5.18391921,12.8173828 5.75927729,13.301595 13.3186849,18.7874349 C14.2757161,19.4824219 16.1783854,21.1686198 17.5,21.1458334 Z" id="path-1"></path>
    </defs>
    <g id="Page-1" stroke="none" stroke-width="1" fill="none" fill-rule="evenodd">
        <g id="Desktop-HD-1" transform="translate(-152.000000, -6512.000000)">
            <g id="footer" transform="translate(-0.000000, 6418.000000)">
                <g id="contact_container" transform="translate(150.000000, 43.000000)">
                    <g id="email" transform="translate(0.000000, 45.000000)">
                        <g id="envelope">
                            <mask id="mask-2" fill="white">
                                <use xlink:href="#path-1"></use>
                            </mask>
                            <g fill-rule="nonzero"></g>
                            <g id="color/white" mask="url(#mask-2)" fill="#FFFFFF" fill-rule="evenodd">
                                <rect id="Rectangle" x="0" y="0" width="35" height="35"></rect>
                            </g>
                        </g>
                    </g>
                </g>
            </g>
        </g>
    </g>
</svg>

<svg xmlns="http://www.w3.org/2000/svg" xmlns:xlink="http://www.w3.org/1999/xlink" width="31" height="23" viewBox="0 0 31 23"><defs><path id="a" d="M31.53 13.786a.343.343 0 0 1 .553.268v11.65a2.735 2.735 0 0 1-2.734 2.734H5.651a2.735 2.735 0 0 1-2.734-2.735V14.06a.34.34 0 0 1 .552-.267c1.276.99 2.968 2.25 8.779 6.47 1.202.878 3.23 2.724 5.252 2.712 2.034.018 4.102-1.868 5.258-2.711 5.81-4.221 7.497-5.486 8.773-6.477zm-14.03 7.36c1.322.023 3.224-1.664 4.181-2.359 7.56-5.485 8.135-5.964 9.878-7.331.33-.256.524-.655.524-1.077V9.297a2.735 2.735 0 0 0-2.734-2.735H5.651a2.735 2.735 0 0 0-2.734 2.735v1.082c0 .422.193.815.524 1.077 1.743 1.361 2.318 1.846 9.878 7.331.957.695 2.86 2.382 4.181 2.359z"/></defs><g fill="none" fill-rule="evenodd" transform="translate(-2 -6)"><mask id="b" fill="#fff"><use xlink:href="#a"/></mask><g fill="#FFF" mask="url(#b)"><path d="M0 0h35v35H0z"/></g></g></svg>
